X:6A
T:GB/7b/6A A Brisk Young Sailor Courted Me
%%VWML:GB-7b-6A-0
F:http://www.vwml.org/record/GB/7b/6A
T:Version 2 of 2
C:Mrs. Cranstone (p. 4), Billingshurst, VII. 09
C:Transcribed by Simon Furey and Lewis Jones
L:1/4
M:6/4
I:linebreak $
K:E
E | F2 E F G A | D2 F E2 B | e2 e d c B | d2 c B2 B |$ c2 c e d c | B2 G c2 c | B2 G G F E | G2 F E2 |]

